;FLAVOR:Marlin
;TIME:2017
;Filament used: 2.22876m
;Layer height: 0.2
;MINX:66.788
;MINY:71.385
;MINZ:0.3
;MAXX:174.698
;MAXY:150.615
;MAXZ:7.9
;Generated with Cura_SteamEngine 4.13.1
M140 S60
M105
M190 S60
M104 S200
M105
M109 S200
M82 ;absolute extrusion mode
G28 ;Home
G1 Z15.0 F6000 ;Move the platform down 15mm
;Prime the extruder
G92 E0
G1 F200 E3
G92 E0
G92 E0
G92 E0
G1 F2400 E-6.5
;LAYER_COUNT:39
;LAYER:0
M107
G0 F3600 X84.913 Y95.57 Z0.3
;TYPE:SKIRT
G1 F2400 E0
G1 F1800 X84.913 Y126.43 E1.53961
G1 X89.738 Y126.43 E1.78033
G1 X90.527 Y126.47 E1.81975
G1 X91.307 Y126.589 E1.85911
G1 X92.072 Y126.787 E1.89853
G1 X92.812 Y127.061 E1.9379
G1 X93.521 Y127.409 E1.97731
G1 X94.192 Y127.827 E2.01675
G1 X94.816 Y128.31 E2.05611
G1 X95.389 Y128.853 E2.0955
G1 X95.904 Y129.452 E2.13491
G1 X96.355 Y130.1 E2.1743
G1 X96.739 Y130.791 E2.21374
G1 X97.051 Y131.516 E2.25311
G1 X97.288 Y132.269 E2.2925
G1 X97.333 Y132.49 E2.30375
G1 X99.155 Y132.49 E2.39465
G1 X99.511 Y132.114 E2.42048
G1 X100.11 Y131.599 E2.45989
G1 X100.758 Y131.148 E2.49928
G1 X101.449 Y130.764 E2.53872
G1 X102.174 Y130.452 E2.5781
G1 X102.927 Y130.215 E2.61748
G1 X103.701 Y130.056 E2.65691
G1 X104.486 Y129.975 E2.69628
G1 X104.888 Y129.965 E2.71634
G1 X106.365 Y129.965 E2.79003
G1 X106.336 Y129.918 E2.79278
G1 X105.729 Y128.865 E2.85342
G1 X105.576 Y128.586 E2.8693
G1 X105.013 Y127.51 E2.92988
G1 X104.866 Y127.214 E2.94637
G1 X104.349 Y126.115 E3.00696
G1 X104.216 Y125.816 E3.02329
G1 X103.746 Y124.697 E3.08384
G1 X103.628 Y124.401 E3.09974
G1 X103.203 Y123.261 E3.16044
G1 X103.092 Y122.941 E3.17734
G1 X102.718 Y121.787 E3.23786
G1 X102.625 Y121.48 E3.25386
G1 X102.298 Y120.309 E3.31452
G1 X102.217 Y119.991 E3.33089
G1 X101.94 Y118.809 E3.39146
G1 X101.873 Y118.494 E3.40752
G1 X101.645 Y117.302 E3.46807
G1 X101.589 Y116.973 E3.48472
G1 X101.412 Y115.771 E3.54534
G1 X101.372 Y115.45 E3.56147
G1 X101.245 Y114.241 E3.62212
G1 X101.218 Y113.921 E3.63814
G1 X101.141 Y112.709 E3.69873
G1 X101.127 Y112.375 E3.71541
G1 X101.102 Y111.161 E3.77599
G1 X101.102 Y110.839 E3.79206
G1 X101.127 Y109.625 E3.85264
G1 X101.141 Y109.291 E3.86931
G1 X101.218 Y108.079 E3.9299
G1 X101.245 Y107.759 E3.94592
G1 X101.372 Y106.55 E4.00657
G1 X101.412 Y106.227 E4.02281
G1 X101.589 Y105.027 E4.08333
G1 X101.644 Y104.702 E4.09977
G1 X101.872 Y103.508 E4.16042
G1 X101.939 Y103.194 E4.17643
G1 X102.216 Y102.01 E4.2371
G1 X102.299 Y101.686 E4.25379
G1 X102.626 Y100.517 E4.31435
G1 X102.72 Y100.207 E4.33051
G1 X103.095 Y99.053 E4.39104
G1 X103.202 Y98.745 E4.40731
G1 X103.626 Y97.605 E4.46799
G1 X103.747 Y97.3 E4.48436
G1 X104.218 Y96.18 E4.54498
G1 X104.349 Y95.886 E4.56104
G1 X104.865 Y94.788 E4.62156
G1 X105.01 Y94.495 E4.63787
G1 X105.572 Y93.419 E4.69844
G1 X105.731 Y93.13 E4.71489
G1 X106.364 Y92.035 E4.778
G1 X104.888 Y92.035 E4.85163
G1 X104.099 Y91.995 E4.89105
G1 X103.319 Y91.876 E4.93041
G1 X102.554 Y91.678 E4.96984
G1 X101.814 Y91.404 E5.0092
G1 X101.105 Y91.056 E5.04861
G1 X100.434 Y90.638 E5.08805
G1 X99.81 Y90.155 E5.12742
G1 X99.237 Y89.612 E5.1668
G1 X99.149 Y89.51 E5.17352
G1 X97.335 Y89.51 E5.26402
G1 X97.181 Y90.104 E5.29464
G1 X96.907 Y90.844 E5.334
G1 X96.559 Y91.553 E5.37341
G1 X96.141 Y92.224 E5.41285
G1 X95.658 Y92.848 E5.45222
G1 X95.115 Y93.421 E5.4916
G1 X94.516 Y93.936 E5.53101
G1 X93.868 Y94.387 E5.5704
G1 X93.177 Y94.771 E5.60984
G1 X92.452 Y95.083 E5.64922
G1 X91.699 Y95.32 E5.6886
G1 X90.925 Y95.479 E5.72802
G1 X90.14 Y95.56 E5.76739
G1 X89.738 Y95.57 E5.78746
G1 X84.913 Y95.57 E6.02818
G0 F3600 X84.513 Y95.17
G1 F1800 X84.513 Y126.83 E7.6077
G1 X89.738 Y126.83 E7.86838
G1 X90.506 Y126.87 E7.90674
G1 X91.266 Y126.989 E7.94512
G1 X92.009 Y127.187 E7.98348
G1 X92.728 Y127.461 E8.02187
G1 X93.414 Y127.808 E8.06023
G1 X94.061 Y128.224 E8.0986
G1 X94.661 Y128.705 E8.13697
G1 X95.208 Y129.246 E8.17535
G1 X95.696 Y129.841 E8.21374
G1 X96.119 Y130.483 E8.2521
G1 X96.474 Y131.166 E8.2905
G1 X96.755 Y131.881 E8.32883
G1 X96.961 Y132.623 E8.36725
G1 X97.006 Y132.89 E8.38076
G1 X99.325 Y132.89 E8.49645
G1 X99.363 Y132.842 E8.49951
G1 X99.904 Y132.295 E8.53789
G1 X100.499 Y131.807 E8.57628
G1 X101.141 Y131.384 E8.61464
G1 X101.824 Y131.029 E8.65304
G1 X102.539 Y130.748 E8.69137
G1 X103.281 Y130.542 E8.72979
G1 X104.039 Y130.414 E8.76814
G1 X104.888 Y130.365 E8.81057
G1 X107.085 Y130.365 E8.92017
G1 X106.683 Y129.719 E8.95813
G1 X106.076 Y128.666 E9.01877
G1 X105.93 Y128.401 E9.03387
G1 X105.367 Y127.325 E9.09445
G1 X105.228 Y127.044 E9.11009
G1 X104.711 Y125.945 E9.17069
G1 X104.584 Y125.661 E9.18621
G1 X104.114 Y124.542 E9.24676
G1 X104.003 Y124.261 E9.26183
G1 X103.578 Y123.121 E9.32253
G1 X103.472 Y122.817 E9.33859
G1 X103.098 Y121.663 E9.39911
G1 X103.011 Y121.372 E9.41427
G1 X102.684 Y120.201 E9.47492
G1 X102.606 Y119.899 E9.49049
G1 X102.329 Y118.717 E9.55105
G1 X102.266 Y118.419 E9.56625
G1 X102.038 Y117.227 E9.6268
G1 X101.985 Y116.915 E9.64258
G1 X101.808 Y115.713 E9.7032
G1 X101.769 Y115.408 E9.71854
G1 X101.642 Y114.199 E9.77919
G1 X101.617 Y113.895 E9.79441
G1 X101.54 Y112.683 E9.855
G1 X101.527 Y112.366 E9.87082
G1 X101.502 Y111.152 E9.9314
G1 X101.502 Y110.848 E9.94657
G1 X101.527 Y109.634 E10.00715
G1 X101.54 Y109.317 E10.02298
G1 X101.617 Y108.105 E10.08357
G1 X101.642 Y107.801 E10.09879
G1 X101.769 Y106.592 E10.15943
G1 X101.808 Y106.285 E10.17487
G1 X101.985 Y105.085 E10.23539
G1 X102.037 Y104.777 E10.25097
G1 X102.265 Y103.583 E10.31162
G1 X102.329 Y103.285 E10.32682
G1 X102.606 Y102.101 E10.38749
G1 X102.685 Y101.794 E10.40331
G1 X103.012 Y100.625 E10.46387
G1 X103.1 Y100.331 E10.47918
G1 X103.475 Y99.177 E10.53971
G1 X103.577 Y98.884 E10.55519
G1 X104.001 Y97.744 E10.61587
G1 X104.116 Y97.455 E10.63139
G1 X104.587 Y96.335 E10.69201
G1 X104.711 Y96.057 E10.70719
G1 X105.227 Y94.959 E10.76772
G1 X105.365 Y94.68 E10.78325
G1 X105.927 Y93.604 E10.84381
G1 X106.078 Y93.33 E10.85942
G1 X106.686 Y92.277 E10.92008
G1 X107.085 Y91.635 E10.9578
G1 X104.888 Y91.635 E11.0674
G1 X104.12 Y91.595 E11.10577
G1 X103.36 Y91.476 E11.14415
G1 X102.617 Y91.278 E11.18251
G1 X101.898 Y91.004 E11.2209
G1 X101.212 Y90.657 E11.25925
G1 X100.565 Y90.241 E11.29763
G1 X99.965 Y89.76 E11.33599
G1 X99.418 Y89.219 E11.37438
G1 X99.329 Y89.11 E11.3814
G1 X97.008 Y89.11 E11.49719
G1 X96.979 Y89.298 E11.50668
G1 X96.781 Y90.041 E11.54505
G1 X96.507 Y90.76 E11.58343
G1 X96.16 Y91.446 E11.62179
G1 X95.744 Y92.093 E11.66016
G1 X95.263 Y92.693 E11.69853
G1 X94.722 Y93.24 E11.73691
G1 X94.127 Y93.728 E11.7753
G1 X93.485 Y94.151 E11.81366
G1 X92.802 Y94.506 E11.85206
G1 X92.087 Y94.787 E11.89039
G1 X91.345 Y94.993 E11.92881
G1 X90.587 Y95.121 E11.96716
G1 X89.738 Y95.17 E12.00959
G1 X84.513 Y95.17 E12.27026
G0 F3600 X84.113 Y94.77
G1 F1800 X84.113 Y127.23 E13.8897
G1 X89.738 Y127.23 E14.17033
G1 X90.485 Y127.27 E14.20765
G1 X91.223 Y127.389 E14.24495
G1 X91.945 Y127.587 E14.2823
G1 X92.641 Y127.86 E14.3196
G1 X93.304 Y128.207 E14.35693
G1 X93.927 Y128.622 E14.39428
G1 X94.501 Y129.101 E14.43158
G1 X95.022 Y129.638 E14.4689
G1 X95.481 Y130.228 E14.5062
G1 X95.876 Y130.864 E14.54355
G1 X96.2 Y131.538 E14.58086
G1 X96.45 Y132.243 E14.61818
G1 X96.624 Y132.971 E14.65552
G1 X96.665 Y133.29 E14.67157
G1 X99.519 Y133.29 E14.81395
G1 X99.759 Y133.002 E14.83266
G1 X100.296 Y132.481 E14.86999
G1 X100.886 Y132.022 E14.90728
G1 X101.522 Y131.627 E14.94463
G1 X102.196 Y131.303 E14.98194
G1 X102.901 Y131.053 E15.01926
G1 X103.629 Y130.879 E15.0566
G1 X104.371 Y130.784 E15.09392
G1 X104.888 Y130.765 E15.11973
G1 X107.412 Y130.765 E15.24566
G1 X107.828 Y130.787 E15.26644
G1 X107.187 Y129.779 E15.32604
G1 X107.029 Y129.519 E15.34121
G1 X106.422 Y128.466 E15.40185
G1 X106.285 Y128.215 E15.41612
G1 X105.722 Y127.139 E15.4767
G1 X105.59 Y126.874 E15.49148
G1 X105.073 Y125.775 E15.55207
G1 X104.953 Y125.506 E15.56676
G1 X104.483 Y124.387 E15.62732
G1 X104.378 Y124.121 E15.64158
G1 X103.953 Y122.981 E15.70228
G1 X103.853 Y122.694 E15.71744
G1 X103.479 Y121.54 E15.77797
G1 X103.396 Y121.265 E15.7923
G1 X103.069 Y120.094 E15.85295
G1 X102.996 Y119.808 E15.86768
G1 X102.719 Y118.626 E15.92825
G1 X102.659 Y118.344 E15.94263
G1 X102.431 Y117.152 E16.00318
G1 X102.381 Y116.857 E16.01811
G1 X102.204 Y115.655 E16.07872
G1 X102.167 Y115.366 E16.09326
G1 X102.04 Y114.157 E16.15391
G1 X102.016 Y113.87 E16.16827
G1 X101.939 Y112.658 E16.22886
G1 X101.926 Y112.358 E16.24384
G1 X101.901 Y111.144 E16.30442
G1 X101.901 Y110.856 E16.31879
G1 X101.926 Y109.642 E16.37937
G1 X101.939 Y109.342 E16.39435
G1 X102.016 Y108.13 E16.45494
G1 X102.04 Y107.843 E16.46931
G1 X102.167 Y106.634 E16.52996
G1 X102.204 Y106.344 E16.54454
G1 X102.381 Y105.144 E16.60506
G1 X102.43 Y104.852 E16.61983
G1 X102.658 Y103.658 E16.68048
G1 X102.718 Y103.376 E16.69486
G1 X102.995 Y102.192 E16.75553
G1 X103.07 Y101.901 E16.77052
G1 X103.397 Y100.732 E16.83108
G1 X103.481 Y100.455 E16.84552
G1 X103.856 Y99.301 E16.90606
G1 X103.952 Y99.024 E16.92068
G1 X104.376 Y97.884 E16.98136
G1 X104.484 Y97.61 E16.99606
G1 X104.955 Y96.49 E17.05667
G1 X105.073 Y96.227 E17.07106
G1 X105.589 Y95.129 E17.13158
G1 X105.719 Y94.865 E17.14626
G1 X106.281 Y93.789 E17.20683
G1 X106.424 Y93.53 E17.22159
G1 X107.032 Y92.477 E17.28225
G1 X107.182 Y92.228 E17.29675
G1 X107.821 Y91.22 E17.3563
G1 X107.412 Y91.235 E17.37671
G1 X104.888 Y91.235 E17.50264
G1 X104.141 Y91.195 E17.53996
G1 X103.403 Y91.076 E17.57725
G1 X102.681 Y90.878 E17.6146
G1 X101.985 Y90.605 E17.6519
G1 X101.322 Y90.258 E17.68924
G1 X100.699 Y89.843 E17.72658
G1 X100.125 Y89.364 E17.76388
G1 X99.604 Y88.827 E17.80121
G1 X99.513 Y88.71 E17.8086
G1 X96.667 Y88.71 E17.95059
G1 X96.579 Y89.255 E17.97813
G1 X96.381 Y89.977 E18.01548
G1 X96.108 Y90.673 E18.05278
G1 X95.761 Y91.336 E18.09012
G1 X95.346 Y91.959 E18.12746
G1 X94.867 Y92.533 E18.16476
G1 X94.33 Y93.054 E18.20209
G1 X93.74 Y93.513 E18.23938
G1 X93.104 Y93.908 E18.27674
G1 X92.43 Y94.232 E18.31405
G1 X91.725 Y94.482 E18.35136
G1 X90.997 Y94.656 E18.38871
G1 X90.255 Y94.751 E18.42603
G1 X89.738 Y94.77 E18.45184
G1 X84.113 Y94.77 E18.73247
G0 F3600 X83.713 Y94.37
G1 F1800 X83.713 Y127.63 E20.39182
G1 X89.738 Y127.63 E20.69241
G1 X90.463 Y127.67 E20.72863
G1 X91.18 Y127.789 E20.76489
G1 X91.879 Y127.987 E20.80114
G1 X92.552 Y128.26 E20.83737
G1 X93.191 Y128.605 E20.8736
G1 X93.788 Y129.019 E20.90985
G1 X94.336 Y129.495 E20.94606
G1 X94.829 Y130.029 E20.98232
G1 X95.259 Y130.614 E21.01854
G1 X95.623 Y131.243 E21.0548
G1 X95.916 Y131.908 E21.09105
G1 X96.134 Y132.601 E21.1273
G1 X96.274 Y133.313 E21.1635
G1 X96.3 Y133.69 E21.18235
G1 X99.699 Y133.69 E21.35193
G1 X100.153 Y133.167 E21.38648
G1 X100.687 Y132.674 E21.42274
G1 X101.272 Y132.244 E21.45896
G1 X101.901 Y131.88 E21.49522
G1 X102.566 Y131.587 E21.53147
G1 X103.259 Y131.369 E21.56772
G1 X103.971 Y131.229 E21.60392
G1 X104.888 Y131.165 E21.64978
G1 X107.412 Y131.165 E21.7757
G1 X108.137 Y131.205 E21.81193
G1 X108.657 Y131.291 E21.83822
G1 X108.325 Y130.813 E21.86726
G1 X108.175 Y130.588 E21.88075
G1 X107.524 Y129.564 E21.94129
G1 X107.376 Y129.319 E21.95557
G1 X106.769 Y128.266 E22.01621
G1 X106.639 Y128.03 E22.02965
G1 X106.076 Y126.954 E22.09023
G1 X105.952 Y126.703 E22.1042
G1 X105.435 Y125.604 E22.16479
G1 X105.322 Y125.351 E22.17862
G1 X104.852 Y124.232 E22.23917
G1 X104.753 Y123.982 E22.25259
G1 X104.328 Y122.842 E22.31328
G1 X104.233 Y122.571 E22.32761
G1 X103.859 Y121.417 E22.38813
G1 X103.781 Y121.157 E22.40167
G1 X103.454 Y119.986 E22.46233
G1 X103.385 Y119.717 E22.47619
G1 X103.108 Y118.535 E22.53675
G1 X103.052 Y118.269 E22.55032
G1 X102.824 Y117.077 E22.61086
G1 X102.776 Y116.799 E22.62494
G1 X102.599 Y115.597 E22.68555
G1 X102.565 Y115.325 E22.69923
G1 X102.438 Y114.116 E22.75988
G1 X102.415 Y113.844 E22.7735
G1 X102.338 Y112.632 E22.83408
G1 X102.326 Y112.35 E22.84817
G1 X102.301 Y111.136 E22.90875
G1 X102.301 Y110.864 E22.92232
G1 X102.326 Y109.65 E22.9829
G1 X102.338 Y109.368 E22.99698
G1 X102.415 Y108.156 E23.05757
G1 X102.438 Y107.884 E23.07118
G1 X102.565 Y106.675 E23.13183
G1 X102.6 Y106.402 E23.14557
G1 X102.777 Y105.202 E23.20608
G1 X102.823 Y104.927 E23.21999
G1 X103.051 Y103.733 E23.28064
G1 X103.108 Y103.468 E23.29416
G1 X103.385 Y102.284 E23.35483
G1 X103.455 Y102.009 E23.36898
G1 X103.782 Y100.84 E23.42954
G1 X103.861 Y100.578 E23.4432
G1 X104.236 Y99.424 E23.50373
G1 X104.327 Y99.163 E23.51752
G1 X104.751 Y98.023 E23.5782
G1 X104.853 Y97.765 E23.59205
G1 X105.324 Y96.645 E23.65266
G1 X105.435 Y96.397 E23.66622
G1 X105.951 Y95.299 E23.72674
G1 X106.074 Y95.05 E23.7406
G1 X106.636 Y93.974 E23.80116
G1 X106.77 Y93.73 E23.81505
G1 X107.378 Y92.677 E23.87571
G1 X107.52 Y92.442 E23.88941
G1 X108.17 Y91.417 E23.94997
G1 X108.328 Y91.18 E23.96418
G1 X108.658 Y90.706 E23.99299
G1 X108.329 Y90.771 E24.00972
G1 X107.412 Y90.835 E24.05558
G1 X104.888 Y90.835 E24.18151
G1 X104.163 Y90.795 E24.21773
G1 X103.446 Y90.676 E24.25399
G1 X102.747 Y90.478 E24.29024
G1 X102.074 Y90.205 E24.32647
G1 X101.435 Y89.86 E24.3627
G1 X100.838 Y89.446 E24.39894
G1 X100.29 Y88.97 E24.43516
G1 X99.797 Y88.436 E24.47142
G1 X99.704 Y88.31 E24.47923
G1 X96.308 Y88.31 E24.64866
G1 X96.298 Y88.495 E24.6579
G1 X96.179 Y89.212 E24.69416
G1 X95.981 Y89.911 E24.73041
G1 X95.708 Y90.584 E24.76664
G1 X95.363 Y91.223 E24.80287
G1 X94.949 Y91.82 E24.83911
G1 X94.473 Y92.368 E24.87533
G1 X93.939 Y92.861 E24.91159
G1 X93.354 Y93.291 E24.94781
G1 X92.725 Y93.655 E24.98407
G1 X92.06 Y93.948 E25.02032
G1 X91.367 Y94.166 E25.05657
G1 X90.655 Y94.306 E25.09277
G1 X89.738 Y94.37 E25.13863
G1 X83.713 Y94.37 E25.43922
G0 F3600 X83.313 Y93.97
G1 F1800 X83.313 Y128.03 E27.13848
G1 X89.738 Y128.03 E27.45902
G1 X90.441 Y128.07 E27.49415
G1 X91.135 Y128.189 E27.52928
G1 X91.81 Y128.387 E27.56437
G1 X92.459 Y128.659 E27.59948
G1 X93.073 Y129.004 E27.63462
G1 X93.644 Y129.415 E27.66972
G1 X94.165 Y129.889 E27.70486
G1 X94.629 Y130.419 E27.74
G1 X95.029 Y130.998 E27.77511
G1 X95.361 Y131.619 E27.81024
G1 X95.621 Y132.273 E27.84536
G1 X95.805 Y132.953 E27.8805
G1 X95.911 Y133.649 E27.91562
G1 X95.931 Y134.09 E27.93765
G1 X99.907 Y134.09 E28.13601
G1 X100.073 Y133.859 E28.1502
G1 X100.547 Y133.338 E28.18534
G1 X101.077 Y132.874 E28.22049
G1 X101.656 Y132.474 E28.2556
G1 X102.277 Y132.142 E28.29073
G1 X102.931 Y131.882 E28.32584
G1 X103.611 Y131.698 E28.36099
G1 X104.307 Y131.592 E28.39611
G1 X104.888 Y131.565 E28.42513
G1 X107.412 Y131.565 E28.55105
G1 X108.115 Y131.605 E28.58618
G1 X108.809 Y131.724 E28.62131
G1 X109.484 Y131.922 E28.6564
G1 X109.65 Y131.992 E28.66539
G1 X109.347 Y131.583 E28.69079
G1 X108.653 Y130.584 E28.75147
G1 X108.513 Y130.373 E28.76411
G1 X107.862 Y129.349 E28.82464
G1 X107.723 Y129.119 E28.83805
G1 X107.116 Y128.066 E28.89869
G1 X106.994 Y127.844 E28.91133
G1 X106.431 Y126.768 E28.97191
G1 X106.314 Y126.533 E28.98501
G1 X105.797 Y125.434 E29.0456
G1 X105.691 Y125.196 E29.0586
G1 X105.221 Y124.077 E29.11915
G1 X105.128 Y123.842 E29.13176
G1 X104.703 Y122.702 E29.19246
G1 X104.614 Y122.447 E29.20594
G1 X104.24 Y121.293 E29.26646
G1 X104.166 Y121.05 E29.27913
G1 X103.839 Y119.879 E29.33979
G1 X103.775 Y119.626 E29.35281
G1 X103.498 Y118.444 E29.41337
G1 X103.444 Y118.194 E29.42613
G1 X103.216 Y117.002 E29.48668
G1 X103.172 Y116.74 E29.49994
G1 X102.995 Y115.538 E29.56055
G1 X102.963 Y115.283 E29.57337
G1 X102.836 Y114.074 E29.63402
G1 X102.814 Y113.819 E29.64679
G1 X102.737 Y112.607 E29.70738
G1 X102.726 Y112.342 E29.72061
G1 X102.701 Y111.128 E29.78119
G1 X102.701 Y110.872 E29.79396
G1 X102.726 Y109.658 E29.85454
G1 X102.737 Y109.393 E29.86777
G1 X102.814 Y108.181 E29.92836
G1 X102.836 Y107.926 E29.94113
G1 X102.963 Y106.717 E30.00178
G1 X102.995 Y106.46 E30.0147
G1 X103.172 Y105.26 E30.07522
G1 X103.216 Y105.002 E30.08828
G1 X103.444 Y103.808 E30.14892
G1 X103.497 Y103.559 E30.16162
G1 X103.774 Y102.375 E30.22229
G1 X103.84 Y102.117 E30.23557
G1 X104.167 Y100.948 E30.29613
G1 X104.242 Y100.702 E30.30896
G1 X104.617 Y99.548 E30.3695
G1 X104.702 Y99.303 E30.38244
G1 X105.126 Y98.163 E30.44312
G1 X105.222 Y97.921 E30.45611
G1 X105.693 Y96.801 E30.51673
G1 X105.797 Y96.567 E30.5295
